X: 48
T:Smash the 
R:jig
M:6/8
L:1/8
K:D
|: A | DED F2A | d2f ecA | G2B F2A | E2F GFE |
DED F2A | d2f ecA | Bgf edc | d3 d2 :|
| f/g/ | a2f f2d | Adf agf | g2e e2c | Ace gfe |
| a2f f2d | Adf agf | gfe cde | fdd d2e/f/ ||
| a2f f2d | Adf agf | g2e e2c | Ace gfe |
| fed gfe | agf bag | fed cde | fdd d2 |]
